src/svg/uf250-hourglass-o.svg

<!-- Generated by IcoMoon.io -->
<svg version="1.1" xmlns="http://www.w3.org/2000/svg" width="27" height="32" viewBox="0 0 27 32">
<path d="M25.143 2.286c0 6.607-3.161 11.393-6.661 13.714 3.5 2.321 6.661 7.107 6.661 13.714h1.714c0.321 0 0.571 0.25 0.571 0.571v1.143c0 0.321-0.25 0.571-0.571 0.571h-26.286c-0.321 0-0.571-0.25-0.571-0.571v-1.143c0-0.321 0.25-0.571 0.571-0.571h1.714c0-6.607 3.161-11.393 6.661-13.714-3.5-2.321-6.661-7.107-6.661-13.714h-1.714c-0.321 0-0.571-0.25-0.571-0.571v-1.143c0-0.321 0.25-0.571 0.571-0.571h26.286c0.321 0 0.571 0.25 0.571 0.571v1.143c0 0.321-0.25 0.571-0.571 0.571h-1.714zM15.607 14.929c3.607-1.357 7.25-6.125 7.25-12.643h-18.286c0 6.518 3.643 11.286 7.25 12.643 0.446 0.161 0.75 0.589 0.75 1.071s-0.304 0.911-0.75 1.071c-3.607 1.357-7.25 6.125-7.25 12.643h18.286c0-6.518-3.643-11.286-7.25-12.643-0.446-0.161-0.75-0.589-0.75-1.071s0.304-0.911 0.75-1.071z"></path>
</svg>

<svg xmlns="http://www.w3.org/2000/svg" width="27" height="32"><path d="M25.143 2.286c0 6.607-3.161 11.393-6.661 13.714 3.5 2.321 6.661 7.107 6.661 13.714h1.714c.321 0 .571.25.571.571v1.143c0 .321-.25.571-.571.571H.571A.564.564 0 0 1 0 31.428v-1.143c0-.321.25-.571.571-.571h1.714c0-6.607 3.161-11.393 6.661-13.714-3.5-2.321-6.661-7.107-6.661-13.714H.571A.564.564 0 0 1 0 1.715V.572C0 .251.25.001.571.001h26.286c.321 0 .571.25.571.571v1.143c0 .321-.25.571-.571.571h-1.714zm-9.536 12.643c3.607-1.357 7.25-6.125 7.25-12.643H4.571c0 6.518 3.643 11.286 7.25 12.643a1.14 1.14 0 0 1 0 2.142c-3.607 1.357-7.25 6.125-7.25 12.643h18.286c0-6.518-3.643-11.286-7.25-12.643a1.14 1.14 0 0 1 0-2.142z"/></svg>
